X:68
T:Dorrington Lads
Z:Jack Campin, http://www.campin.me.uk/
S:Northumbrian Minstrelsy
M:9/8
L:1/8
K:G
e|dGB dB/c/d/B/ gdB         |dGB        dB/c/d/B/ cAe      |\
  dGB dB/c/d/B/ gdB         |c2A        AB/c/d/B/ cA      :|
e|d2g feg       fdg         |feg        fdf       ec/d/e/c/|\
  d2g feg       fdf         |c2A        Ac/d/e/c/ cAe      |
  dBg fdg       f/e/d/f/g/e/|dBg        fdf       ec/d/e/c/|\
  dBg fdg       f/e/d/f/g/e/|c/A/B/c/B/ Ac/d/e/d/ cA      :|

